X:1
T:Title
%%score { ( 1 3 ) | ( 2 4 ) }
L:1/8
Q:1/4=100
M:4/4
K:Bb
V:1 treble nm="Grand Piano"
V:3 treble 
V:2 bass 
V:4 bass 
V:1
 [DF]>[_D=E] [=DF]>[_EG] [DF]2 [DF]2 | D>[DF] [FB]>c d4 | G>^F G>[=FA] [FB]2 [Fd]2 | %3
w: Ira~D.~Sankey * * * * *|||
 [=Ec]>[EB] [EA]>[EG] z2 _E2 | [DF]>[_D=E] [=DF]>[_EG] [DF]2 [DF]2 | D>[DF] [FB]>c d4 | %6
w: |||
 G>[Fe] [Fd]>c B2 A2 | [DB]6 z2 | [Fd]4 [DF]4 | [EG]>[FA] [GB]>[Gc] [GB]2 [EG]2 | z4 [DB]4 | %11
w: |||||
 z4 c4 | d4 [DB]4 | c>B A>G [EG]2 [DF]2 | [EG]>[FA] [FB]>[Fc] [Fd]>[FB] [Ec]>[EA] | [DB]6 z2 |] %16
w: |||||
V:2
 [B,,B,]>[B,,B,] [B,,B,]>[B,,B,] [B,,B,]2 [B,,B,]2 | %1
 [B,,F,]>[B,,B,] [D,B,]>[K:treble][F,A,F] [B,F]4 | [E,B,E]>[E,A,E] [E,B,E]>[E,C] [D,B,]2 [B,,B,]2 | %3
 [C,G,]>[C,C] [C,C]>[C,B,] [F,A,]4 | [B,,B,]>[B,,B,] [B,,B,]>[B,,B,] [B,,B,]2 [B,,B,]2 | %5
 [B,,F,]>[B,,B,] [D,B,]>[K:treble][F,A,F] [B,F]4 | [E,B,]>[C,A,] [D,B,]>[E,G,E] [F,D]2 [F,CE]2 | %7
 [B,,B,]6 z2 | [B,,B,]2 [B,,B,]2 [B,,B,]2 [B,,B,]2 | [E,B,]>[E,B,] [E,B,]>[E,B,] [E,B,]2 [E,B,]2 | %10
 [B,,B,]2 [B,,B,]2 [B,,F,]2 B,,2 | z4 F2 z2 | [B,,B,]2 [B,,B,]2 [B,,F,]2 B,,2 | %13
 [E,G,E]>[E,G,E] [E,A,E]>[E,B,E] [B,,B,]2 [B,,B,]2 | %14
 [E,B,]>[E,C] [D,B,]>[C,A,] [B,,B,]>[D,B,] [F,A,]>[F,C] | [B,,B,]6 z2 |] %16
V:3
 x8 | x8 | x8 | z4 F4 | x8 | x8 | x8 | x8 | x8 | x8 | [DF]4 z2 B,2 | d>d c>B z2 E2 | D2 F2 z2 F,2 | %13
 x8 | x8 | x8 |] %16
V:4
 x8 | x7/2[K:treble] x9/2 | x8 | x8 | x8 | x7/2[K:treble] x9/2 | x8 | x8 | x8 | x8 | x8 | %11
 [B,F]>[B,F] [A,CF]>[G,C=E] [F,A,]4 | x8 | x8 | x8 | x8 |] %16

